assets/Computer disk/Flat/computer_disk_flat.svg

<svg width="32" height="32" viewBox="0 0 32 32" fill="none" xmlns="http://www.w3.org/2000/svg">
<path d="M2 5C2 3.34315 3.34315 2 5 2H27C28.6569 2 30 3.34315 30 5V27C30 28.6569 28.6569 30 27 30H5C3.34315 30 2 28.6569 2 27V5Z" fill="#433B6B"/>
<path d="M16 28C22.6274 28 28 22.6274 28 16C28 9.37258 22.6274 4 16 4C9.37258 4 4 9.37258 4 16C4 22.6274 9.37258 28 16 28ZM16 19C14.3431 19 13 17.6569 13 16C13 14.3431 14.3431 13 16 13C17.6569 13 19 14.3431 19 16C19 17.6569 17.6569 19 16 19Z" fill="#FFB02E"/>
<path d="M22.4197 8.99669L18.365 13.4199C17.7422 12.8487 16.9118 12.5 16 12.5C15.2817 12.5 14.6139 12.7164 14.0583 13.0875L10.7289 8.09341C10.2697 7.40456 10.452 6.46338 11.1966 6.1014C12.6479 5.3958 14.2777 5 16 5C18.327 5 20.4852 5.72256 22.2626 6.95556C22.9431 7.42768 22.9794 8.38613 22.4197 8.99669ZM20.8034 25.8986C21.548 25.5366 21.7303 24.5955 21.271 23.9066L17.9416 18.9125C17.386 19.2836 16.7183 19.5 16 19.5C15.0882 19.5 14.2578 19.1514 13.6349 18.5801L9.58027 23.0033C9.02059 23.6139 9.05685 24.5723 9.73739 25.0445C11.5147 26.2775 13.673 27 16 27C17.7222 27 19.352 26.6042 20.8034 25.8986Z" fill="#FCD53F"/>
<path d="M16 20C18.2091 20 20 18.2091 20 16C20 13.7909 18.2091 12 16 12C13.7909 12 12 13.7909 12 16C12 18.2091 13.7909 20 16 20ZM16 19C14.3431 19 13 17.6569 13 16C13 14.3431 14.3431 13 16 13C17.6569 13 19 14.3431 19 16C19 17.6569 17.6569 19 16 19Z" fill="#FF822D"/>
<path d="M20 13C20 11.8954 20.8954 11 22 11H30V21H22C20.8954 21 20 20.1046 20 19V13Z" fill="#D3D3D3"/>
</svg>

<svg xmlns="http://www.w3.org/2000/svg" width="32" height="32" fill="none"><path fill="#433B6B" d="M2 5a3 3 0 0 1 3-3h22a3 3 0 0 1 3 3v22a3 3 0 0 1-3 3H5a3 3 0 0 1-3-3V5Z"/><path fill="#FFB02E" d="M16 28c6.627 0 12-5.373 12-12S22.627 4 16 4 4 9.373 4 16s5.373 12 12 12Zm0-9a3 3 0 1 1 0-6 3 3 0 0 1 0 6Z"/><path fill="#FCD53F" d="m22.42 8.997-4.055 4.423A3.487 3.487 0 0 0 16 12.5c-.718 0-1.386.216-1.942.588l-3.33-4.995c-.458-.688-.276-1.63.469-1.992A10.955 10.955 0 0 1 16 5c2.327 0 4.485.723 6.263 1.956.68.472.716 1.43.157 2.04Zm-1.617 16.902c.745-.362.927-1.303.468-1.992l-3.33-4.994A3.484 3.484 0 0 1 16 19.5a3.487 3.487 0 0 1-2.365-.92L9.58 23.003c-.56.61-.523 1.57.157 2.041A10.95 10.95 0 0 0 16 27c1.722 0 3.352-.396 4.803-1.101Z"/><path fill="#FF822D" d="M16 20a4 4 0 1 0 0-8 4 4 0 0 0 0 8Zm0-1a3 3 0 1 1 0-6 3 3 0 0 1 0 6Z"/><path fill="#D3D3D3" d="M20 13a2 2 0 0 1 2-2h8v10h-8a2 2 0 0 1-2-2v-6Z"/></svg>
